X: 297
T: Lord Inchiquin
R: waltz
M: 3/4
L: 1/8
K: Dmaj
A2|d2 de fe|d2 ed cB|A2 F2 A2|f4 e2|
d2 ed cB|A2 G2 F2|G2 BA GF|E4 ag|
f3e d2|d2 c2 B2|A2 F2 A2|f4 e2|
d2 ed cB|Ad3 F2|E4 D2|D4:|
|:A2|AB cd e2|e2 d2 e2|f2 d2 f2|e4 d2|
de fg a2|a2 b2 g2|f3d f2|e4 d2|
de fg a2|a2 b2 g2|f3g e2|d2 e2 f2|
gf e2 e2|e2 f2 d2|c2 d2 B2|A2 A2 ag|
f3e d2|d2 c2 B2|A2 F2 A2|g4 fe|
d2 ed cB|Ad3 F2|E4 D2|D4:|
F: https://thesession.org/tunes/991#setting27861

